svg/file_xml_box.svg

<svg xmlns="http://www.w3.org/2000/svg" viewBox="0 0 24 24"><path d="M19 3H5c-1.11 0-2 .89-2 2v14c0 1.11.89 2 2 2h14c1.11 0 2-.89 2-2V5c0-1.11-.89-2-2-2M8 15H6.5L6 13l-.5 2H4l.75-3L4 9h1.5l.5 2 .5-2H8l-.75 3zm7.5 0H14v-4.5h-1V14h-1.5v-3.5h-1V15H9v-4c0-1.1.9-2 2-2h2.5a2 2 0 0 1 2 2zm4.5 0h-3V9h1.5v4.5H20z"/></svg>

<svg xmlns="http://www.w3.org/2000/svg" id="mdi-file-xml-box" viewBox="0 0 24 24"><path d="M19 3H5C3.89 3 3 3.89 3 5V19C3 20.11 3.89 21 5 21H19C20.11 21 21 20.11 21 19V5C21 3.89 20.11 3 19 3M8 15H6.5L6 13L5.5 15H4L4.75 12L4 9H5.5L6 11L6.5 9H8L7.25 12L8 15M15.5 15H14V10.5H13V14H11.5V10.5H10.5V15H9V11C9 9.9 9.9 9 11 9H13.5C14.61 9 15.5 9.9 15.5 11V15M20 15H17V9H18.5V13.5H20V15Z" /></svg>
